X:1
T:[ID 5-16]
T:[ID 5-16]
T:Bezeichnung standardisiert: Courante Courant 33.
T:Urheber unbekannt Datum in der hier transkribierten schriftlichen Quelle: 1775
C:Urheber unbekannt
C:Datum in der hier transkribierten schriftlichen Quelle: 1775
L:1/8
M:2/4
K:D
V:1 treble 
V:1
 B/A/ | Fdce | df f2 | dFEF | c/B/A/^G/ AC | Fdce | df f2 |{e} dFGE | F3 :: e | dfce | dfce | %12
 dfed | c/B/A/^G/ Ae | dfce | df f2 |{e} dFGE | F3 :| %18

